svgs/light/compress-wide.svg

<svg xmlns="http://www.w3.org/2000/svg" viewBox="0 0 512 512"><!--! Font Awesome Pro 6.6.0 by @fontawesome - https://fontawesome.com License - https://fontawesome.com/license (Commercial License) Copyright 2024 Fonticons, Inc. --><path d="M128 80c0-8.8 7.2-16 16-16s16 7.2 16 16l0 128c0 8.8-7.2 16-16 16L16 224c-8.8 0-16-7.2-16-16s7.2-16 16-16l112 0 0-112zm16 208c8.8 0 16 7.2 16 16l0 128c0 8.8-7.2 16-16 16s-16-7.2-16-16l0-112L16 320c-8.8 0-16-7.2-16-16s7.2-16 16-16l128 0zM352 80c0-8.8 7.2-16 16-16s16 7.2 16 16l0 112 112 0c8.8 0 16 7.2 16 16s-7.2 16-16 16l-128 0c-8.8 0-16-7.2-16-16l0-128zM496 288c8.8 0 16 7.2 16 16s-7.2 16-16 16l-112 0 0 112c0 8.8-7.2 16-16 16s-16-7.2-16-16l0-128c0-8.8 7.2-16 16-16l128 0z"/></svg>

<svg xmlns="http://www.w3.org/2000/svg" viewBox="0 0 512 512"><!--! Font Awesome Pro 6.4.2 by @fontawesome - https://fontawesome.com License - https://fontawesome.com/license (Commercial License) Copyright 2023 Fonticons, Inc. --><path d="M128 80c0-8.8 7.2-16 16-16s16 7.2 16 16V208c0 8.8-7.2 16-16 16H16c-8.8 0-16-7.2-16-16s7.2-16 16-16H128V80zm16 208c8.8 0 16 7.2 16 16V432c0 8.8-7.2 16-16 16s-16-7.2-16-16V320H16c-8.8 0-16-7.2-16-16s7.2-16 16-16H144zM352 80c0-8.8 7.2-16 16-16s16 7.2 16 16V192H496c8.8 0 16 7.2 16 16s-7.2 16-16 16H368c-8.8 0-16-7.2-16-16V80zM496 288c8.8 0 16 7.2 16 16s-7.2 16-16 16H384V432c0 8.8-7.2 16-16 16s-16-7.2-16-16V304c0-8.8 7.2-16 16-16H496z"/></svg>
